resources/svg/building-2-line.svg

<svg fill="currentColor" viewBox="0 0 24 24" xmlns="http://www.w3.org/2000/svg"><path d="M3 19.0002V5.70058C3 5.28007 3.26307 4.90449 3.65826 4.76079L13.3291 1.24411C13.5886 1.14974 13.8755 1.28361 13.9699 1.54313C13.9898 1.5979 14 1.65573 14 1.714V6.66682L20.3162 8.77223C20.7246 8.90834 21 9.29048 21 9.72091V19.0002H23V21.0002H1V19.0002H3ZM5 19.0002H12V3.85555L5 6.40101V19.0002ZM19 19.0002V10.4417L14 8.77501V19.0002H19Z"/></svg>

<svg xmlns="http://www.w3.org/2000/svg" viewBox="0 0 24 24" fill="currentColor">
    <g>
        <path fill="none" d="M0 0h24v24H0z"/>
        <path d="M3 19V5.7a1 1 0 0 1 .658-.94l9.671-3.516a.5.5 0 0 1 .671.47v4.953l6.316 2.105a1 1 0 0 1 .684.949V19h2v2H1v-2h2zm2 0h7V3.855L5 6.401V19zm14 0v-8.558l-5-1.667V19h5z"/>
    </g>
</svg>
